X:1
T:A Major Oliver Holden, 1796
T:Isaac Watts, 1709 (Hymn 144, Book 1)  86. 86. (C. M.)
T:Smyrna No copyright. Transcribed from The Union Harmony, 1796.
%%score [ 1 2 3 ]
L:1/8
M:4/4
K:A
V:1 treble nm="Treble" snm="Tr."
V:2 treble-8 nm="Tenor" snm="T."
V:3 bass nm="Bass" snm="B."
V:1
 c4 c2 d2 | c2 B2 A2 G2 | A6 G2 | A2 A2 A2 B2 | !fermata!c4 e4 | e2 d2 c2 f2 | e4 d4 | c6 e2 | %8
w: 1.~Why should the|chil- dren of a|King Go|mour- ning all their|days? Great|com- for- ter, de-|scend and|bring Some|
 f2 e2 d2 c2 | B8 | e4 e2 e2 | e2 e2 e2 d2 | (c2 d2 c2) B2 | A2 A2 d2 c2 | c6 c2 | c2 c2 c2 B2 | %16
w: to- ken of Thy|grace.|Thou art the|ear- nest of His|love,~ _ _ The|pledge of things to|come; And|thy soft wings, ce-|
 A2 c2 A2 e2 | d2 B2 B2 B2 | B6 B2 | c2 A2 e2 e2 | dc BA B2 B2 | (cded c2) BA | e6 d2 | c8 |] %24
w: les- tial dove, Will|safe con- vey me|home; And|thy soft wings, ce-|les- * tial * dove, Will|safe~ _ _ _ _ con- *|vey me|home.|
V:2
 E4 A2 A2 | A2 d2 c2 B2 | c6 B2 | A2 F2 c2 B2 | !fermata!A4"^When" z4 |"^wilt Thou banish" z8 | %6
w: 2.~Dost Thou not|dwell in all the|saints, And|seal the heirs of|heav'n?||
"^my        complaints,          And  show my  sins   forgiven?" z8 | z8 | z8 | z8 | B4 B2 B2 | %11
w: ||||As- sure my|
 B2 B2 A2 B2 | (e2 f2 e2) d2 | c2 c2 BA G2 | F6 G2 | A2 A2 A2 B2 | c2 e2 d2 c2 | B2 e2 ^d2 f2 | %18
w: con- science of her|part~ _ _ In|the Re- dee- * mer's|blood, And|bear Thy wit- ness|with my heart, That|I am born of|
 e6 e2 | e2 d2 c2 c2 | BA GF E2 E2 | (ABcd e2) dc | B6 B2 | A8 |] %24
w: God; And|bear Thy wit- ness|with * my * heart, That|I~ _ _ _ _ am *|born of|God.|
V:3
 A,,4 C,2 E,2 | A,2 D,2 E,2 E,2 | A,6 E,2 | F,2 A,2 E,2 E,2 | !fermata![A,,A,]4 C4 | %5
 C2 B,2 A,2 D2 | C4 B,4 | A,6 A,2 | D2 C2 B,2 A,2 | E,8 | E,4 E,2 E,2 | E,2 E,2 C,2 E,2 | A,6 E,2 | %13
 F,2 F,2 B,,2 C,2 | F,6 C,2 | F,2 F,2 F,2 G,2 | A,2 A,2 A,2 A,2 | B,2 B,2 B,2 B,2 | E,6 E,2 | %19
 A,2 A,2 A,2 A,2 | E,2 E,2 E,2 E,2 | (C,2 A,,2) (C,2 D,2) | E,6 E,2 | A,,8 |] %24

